X:151
%%etbk:tnset id:52,pos:5,rep:3x,ant:
%%etbk:tnset id:182,pos:7,rep:2x,ant:
%%etbk:tnset id:341,pos:2,rep:3x,ant:
%%etbk:wsite http://www.thesession.org/tunes/display/20
%%etbk:pldat 2016-06-23T18:39,2016-06-22T15:36,2016-06-16T18:14,2016-05-04T15:53,2016-03-11T15:31,2016-03-09T15:44,2016-03-08T16:16,2016-03-05T13:38,2016-02-26T17:19,2016-02-13T16:09,2015-11-02T18:16,2015-10-29T18:10,2015-10-27T15:50,2015-10-24T13:10,2015-10-19T18:12,2015-10-07T15:53,2015-10-01T18:37,2015-06-24T18:58,2015-06-21T15:53,2015-06-16T17:09,2015-05-26T18:15,2015-03-13T18:42,2015-03-11T16:53,2015-03-06T16:42,2015-02-18T17:59,2015-02-09T19:37,2015-02-03T15:27,2015-02-02T19:34,2014-11-19T16:35,2014-11-06T18:50,2014-11-05T18:44,2014-11-04T15:48,2014-11-02T14:17,2014-10-29T15:24,2014-10-27T18:36,2014-10-19T15:03,2014-10-10T16:05,2014-08-21T19:30,2014-08-19T18:05,2014-08-14T19:42,2014-08-13T19:56,2014-08-12T19:21,2014-08-11T19:45,2014-08-10T11:48,2014-08-05T17:48,2014-06-23T18:06,2014-06-11T16:12,2014-06-05T18:01,2014-06-03T15:15,2014-05-28T16:38,2014-03-06T18:07,2014-03-04T19:14,2014-03-03T18:48,2014-03-02T16:30,2014-03-01T15:42,2014-02-26T16:27,2014-02-24T18:14,2014-02-20T18:34,2014-02-19T16:12,2013-10-30T17:37,2013-10-29T17:09,2013-10-27T14:06,2013-10-17T18:57,2013-10-14T18:19,2013-10-11T18:31,2013-10-07T17:49
T: Cup Of Tea, The
Z: Piano Box Version by Martin Fleischmann
H: Created 2013-02-19 /  Last Modified 2014-02-19
M: 4/4
L: 1/8
R: reel
K: Edor
|:"em"!5!BAGF !3!G!1!EEE| !3!G!1!E!5!BE !3!G!1!EE2 | !5!BAGF !3!GEEE| "bm"!2!FD!4!AD !2!F!1!DD2 |
"em"!5!BAGF !3!G!1!E!2!E!1!E | !3!GE!5!BE !3!G!1!EE2 | !2!B3!1!A !2!G!1!ABc | "bm"!4!dB!1!A!3!G !2!F!1!D D2:|
|: "D"!5!d2 !2!eg !3!f!1!d!4!e!2!c | !1!d2 eg !3!f!1!BB2 | !1!d2eg !3!f!1!d!5!e!3!c | "A"!4!dB!1!A!3!G "D"!2!F!1!D D2 |
"D"!5!d2 !2!eg !3!fd!4!e!2!c | !1!dfaf "G"!4!g2fg | "D"!5!af!4!ge !3!fd!5!e!3!c | "A"!4!dB!1!A!3!G "D"!2!F!1!D D2:|
|:"D"!2!F!3!A!5!dA !2!F!3!A!4!BA | !2!F!3!A!5!d!3!A "A"!2!F!1!EE2 | "D"!2!F!3!A!5!d!3!A !2!F!1!A!2!Bc | !4!dB!1!A!3!G !2!F!1!D D2 |
"D"!2!F!3!A!5!dA !2!F!3!A!4!BA | !2!F2!5!d!2!e "A"!3!f!2!ee2 | "D"!3!fd!5!ec !4!dB!1!A!2!F | "A"!3!G!5!BAG "D"!2!F!1!D D2:|


